icons/folder-cursor_light.svg

<svg version="1.1" viewBox="0 0 32 32" xmlns="http://www.w3.org/2000/svg">
    <path d="m13.844 7.536-1.288-1.072a2 2 0 0 0-1.28-0.464h-7.276a2 2 0 0 0-2 2v16a2 2 0 0 0 2 2h24a2 2 0 0 0 2-2v-14a2 2 0 0 0-2-2h-12.876a2 2 0 0 1-1.28-0.464" fill="#424242"/>
    <g fill="#9E9E9E" fill-rule="evenodd">
        <path d="m23 28.333 7-11.667v8.1667z"/>
        <path d="m16 16.667 7-4.6667 7 4.6667z"/>
        <path d="m16 16.667 7 3.5v8.1667l-7-3.5z"/>
    </g>
</svg>

<svg xmlns="http://www.w3.org/2000/svg" viewBox="0 0 32 32"><path d="M13.844,7.536,12.556,6.464A2,2,0,0,0,11.276,6H4A2,2,0,0,0,2,8V24a2,2,0,0,0,2,2H28a2,2,0,0,0,2-2V10a2,2,0,0,0-2-2H15.124a2,2,0,0,1-1.28-.464" style="fill:#424242"/><path d="M22,28l8-14V24Z" style="fill:#9e9e9e;fill-rule:evenodd"/><path d="M14,14l8-4.675L30,14Z" style="fill:#9e9e9e;fill-rule:evenodd"/><path d="M14,14l8,4V28l-8-4Z" style="fill:#9e9e9e;fill-rule:evenodd"/></svg>
